admin/src/assets/upload_area.svg

<svg width="127" height="129" viewBox="0 0 127 129" fill="none" xmlns="http://www.w3.org/2000/svg">
<rect width="127" height="129" rx="8" fill="#F8F8F8"/>
<rect x="0.5" y="0.5" width="126" height="128" rx="7.5" stroke="black" stroke-opacity="0.2" stroke-dasharray="2 2"/>
<path d="M79.1097 49.765C79.1097 49.765 79.9451 39.2623 69.635 38.0646C60.7988 37.2226 58.1086 44.8866 58.1086 44.8866C58.1086 44.8866 55.4481 42.4985 51.8377 44.4494C48.6056 46.3113 49.1771 49.7205 49.1771 49.7205C49.1771 49.7205 42 51.0227 42 57.8507C42.1596 64.6703 49.7924 64.7387 49.7924 64.7387H61.8285V57.5312H57.967L64.4028 51.5248L70.8385 57.5312H66.9771V64.7387H77.8753C77.8753 64.7387 84.9804 64.746 85.9779 58.2579C86.4529 51.1632 79.1097 49.765 79.1097 49.765Z" fill="#BEC4D5"/>
<path d="M41.324 77.242V83.416C41.324 84.284 41.534 84.928 41.954 85.348C42.3833 85.768 42.976 85.978 43.732 85.978C44.4787 85.978 45.062 85.768 45.482 85.348C45.9113 84.928 46.126 84.284 46.126 83.416V77.242H47.4V83.402C47.4 84.214 47.2367 84.9 46.91 85.46C46.5833 86.0107 46.14 86.4213 45.58 86.692C45.0293 86.9627 44.4087 87.098 43.718 87.098C43.0273 87.098 42.402 86.9627 41.842 86.692C41.2913 86.4213 40.8527 86.0107 40.526 85.46C40.2087 84.9 40.05 84.214 40.05 83.402V77.242H41.324ZM50.7993 80.742C51.0513 80.3033 51.4246 79.9393 51.9193 79.65C52.4233 79.3513 53.0066 79.202 53.6693 79.202C54.3506 79.202 54.9666 79.3653 55.5173 79.692C56.0773 80.0187 56.5159 80.4807 56.8333 81.078C57.1506 81.666 57.3093 82.352 57.3093 83.136C57.3093 83.9107 57.1506 84.6013 56.8333 85.208C56.5159 85.8147 56.0773 86.286 55.5173 86.622C54.9666 86.958 54.3506 87.126 53.6693 87.126C53.0159 87.126 52.4373 86.9813 51.9333 86.692C51.4386 86.3933 51.0606 86.0247 50.7993 85.586V90.64H49.5253V79.328H50.7993V80.742ZM56.0073 83.136C56.0073 82.5573 55.8906 82.0533 55.6573 81.624C55.4239 81.1947 55.1066 80.868 54.7053 80.644C54.3133 80.42 53.8793 80.308 53.4033 80.308C52.9366 80.308 52.5026 80.4247 52.1013 80.658C51.7093 80.882 51.3919 81.2133 51.1493 81.652C50.9159 82.0813 50.7993 82.5807 50.7993 83.15C50.7993 83.7287 50.9159 84.2373 51.1493 84.676C51.3919 85.1053 51.7093 85.4367 52.1013 85.67C52.5026 85.894 52.9366 86.006 53.4033 86.006C53.8793 86.006 54.3133 85.894 54.7053 85.67C55.1066 85.4367 55.4239 85.1053 55.6573 84.676C55.8906 84.2373 56.0073 83.724 56.0073 83.136ZM60.2602 76.64V87H58.9862V76.64H60.2602ZM65.7775 87.126C65.0588 87.126 64.4055 86.9627 63.8175 86.636C63.2388 86.3093 62.7815 85.8473 62.4455 85.25C62.1188 84.6433 61.9555 83.9433 61.9555 83.15C61.9555 82.366 62.1235 81.6753 62.4595 81.078C62.8048 80.4713 63.2715 80.0093 63.8595 79.692C64.4475 79.3653 65.1055 79.202 65.8335 79.202C66.5615 79.202 67.2195 79.3653 67.8075 79.692C68.3955 80.0093 68.8575 80.4667 69.1935 81.064C69.5388 81.6613 69.7115 82.3567 69.7115 83.15C69.7115 83.9433 69.5342 84.6433 69.1795 85.25C68.8342 85.8473 68.3628 86.3093 67.7655 86.636C67.1682 86.9627 66.5055 87.126 65.7775 87.126ZM65.7775 86.006C66.2348 86.006 66.6642 85.8987 67.0655 85.684C67.4668 85.4693 67.7888 85.1473 68.0315 84.718C68.2835 84.2887 68.4095 83.766 68.4095 83.15C68.4095 82.534 68.2882 82.0113 68.0455 81.582C67.8028 81.1527 67.4855 80.8353 67.0935 80.63C66.7015 80.4153 66.2768 80.308 65.8195 80.308C65.3528 80.308 64.9235 80.4153 64.5315 80.63C64.1488 80.8353 63.8408 81.1527 63.6075 81.582C63.3742 82.0113 63.2575 82.534 63.2575 83.15C63.2575 83.7753 63.3695 84.3027 63.5935 84.732C63.8268 85.1613 64.1348 85.4833 64.5175 85.698C64.9002 85.9033 65.3202 86.006 65.7775 86.006ZM70.9106 83.136C70.9106 82.352 71.0693 81.666 71.3866 81.078C71.7039 80.4807 72.1379 80.0187 72.6886 79.692C73.2486 79.3653 73.8693 79.202 74.5506 79.202C75.2226 79.202 75.8059 79.3467 76.3006 79.636C76.7953 79.9253 77.1639 80.2893 77.4066 80.728V79.328H78.6946V87H77.4066V85.572C77.1546 86.02 76.7766 86.3933 76.2726 86.692C75.7779 86.9813 75.1993 87.126 74.5366 87.126C73.8553 87.126 73.2393 86.958 72.6886 86.622C72.1379 86.286 71.7039 85.8147 71.3866 85.208C71.0693 84.6013 70.9106 83.9107 70.9106 83.136ZM77.4066 83.15C77.4066 82.5713 77.2899 82.0673 77.0566 81.638C76.8233 81.2087 76.5059 80.882 76.1046 80.658C75.7126 80.4247 75.2786 80.308 74.8026 80.308C74.3266 80.308 73.8926 80.42 73.5006 80.644C73.1086 80.868 72.7959 81.1947 72.5626 81.624C72.3293 82.0533 72.2126 82.5573 72.2126 83.136C72.2126 83.724 72.3293 84.2373 72.5626 84.676C72.7959 85.1053 73.1086 85.4367 73.5006 85.67C73.8926 85.894 74.3266 86.006 74.8026 86.006C75.2786 86.006 75.7126 85.894 76.1046 85.67C76.5059 85.4367 76.8233 85.1053 77.0566 84.676C77.2899 84.2373 77.4066 83.7287 77.4066 83.15ZM80.3715 83.136C80.3715 82.352 80.5302 81.666 80.8475 81.078C81.1649 80.4807 81.5989 80.0187 82.1495 79.692C82.7095 79.3653 83.3349 79.202 84.0255 79.202C84.6229 79.202 85.1782 79.342 85.6915 79.622C86.2049 79.8927 86.5969 80.252 86.8675 80.7V76.64H88.1555V87H86.8675V85.558C86.6155 86.0153 86.2422 86.3933 85.7475 86.692C85.2529 86.9813 84.6742 87.126 84.0115 87.126C83.3302 87.126 82.7095 86.958 82.1495 86.622C81.5989 86.286 81.1649 85.8147 80.8475 85.208C80.5302 84.6013 80.3715 83.9107 80.3715 83.136ZM86.8675 83.15C86.8675 82.5713 86.7509 82.0673 86.5175 81.638C86.2842 81.2087 85.9669 80.882 85.5655 80.658C85.1735 80.4247 84.7395 80.308 84.2635 80.308C83.7875 80.308 83.3535 80.42 82.9615 80.644C82.5695 80.868 82.2569 81.1947 82.0235 81.624C81.7902 82.0533 81.6735 82.5573 81.6735 83.136C81.6735 83.724 81.7902 84.2373 82.0235 84.676C82.2569 85.1053 82.5695 85.4367 82.9615 85.67C83.3535 85.894 83.7875 86.006 84.2635 86.006C84.7395 86.006 85.1735 85.894 85.5655 85.67C85.9669 85.4367 86.2842 85.1053 86.5175 84.676C86.7509 84.2373 86.8675 83.7287 86.8675 83.15Z" fill="#7B7B7B"/>
</svg>

<?xml version="1.0"?>
<svg width="127" height="129" xmlns="http://www.w3.org/2000/svg" xmlns:svg="http://www.w3.org/2000/svg">
 <g class="layer">
  <title>Layer 1</title>
  <rect fill="#F8F8F8" height="129" id="svg_1" rx="8" width="127"/>
  <rect fill="#e5e5e5" height="128" id="svg_2" rx="7.5" stroke="black" stroke-dasharray="2 2" stroke-opacity="0.2" transform="matrix(1 0 0 1 0 0)" width="126" x="0.5" y="0.5"/>
  <path d="m79.11,49.77c0,0 0.84,-10.51 -9.47,-11.71c-8.84,-0.84 -11.53,6.83 -11.53,6.83c0,0 -2.66,-2.39 -6.27,-0.44c-3.23,1.86 -2.66,5.27 -2.66,5.27c0,0 -7.18,1.3 -7.18,8.13c0.16,6.82 7.79,6.89 7.79,6.89l12.04,0l0,-7.21l-3.86,0l6.43,-6.01l6.44,6.01l-3.86,0l0,7.21l10.9,0c0,0 7.1,0.01 8.1,-6.48c0.47,-7.1 -6.87,-8.49 -6.87,-8.49z" fill="#7f7f7f" id="svg_3"/>
  <text fill="#7f7f7f" font-family="Sans-serif" font-size="17" id="svg_5" stroke-width="0" text-anchor="middle" transform="matrix(1 0 0 1 0 0)" x="64.5" xml:space="preserve" y="94.5">Завантажити</text>
 </g>
</svg>
